svg/SJJB-OpenStreetMapIcons/tourist/battlefield.svg

<?xml version="1.0" encoding="UTF-8" standalone="no"?>
<!-- Created with Inkscape (http://www.inkscape.org/) -->
<svg
   xmlns:dc="http://purl.org/dc/elements/1.1/"
   xmlns:cc="http://creativecommons.org/ns#"
   xmlns:rdf="http://www.w3.org/1999/02/22-rdf-syntax-ns#"
   xmlns:svg="http://www.w3.org/2000/svg"
   xmlns="http://www.w3.org/2000/svg"
   xmlns:sodipodi="http://sodipodi.sourceforge.net/DTD/sodipodi-0.dtd"
   xmlns:inkscape="http://www.inkscape.org/namespaces/inkscape"
   version="1.0"
   width="580"
   height="580"
   id="svg2"
   sodipodi:version="0.32"
   inkscape:version="0.46"
   sodipodi:docname="tourist_batlefield.svg"
   sodipodi:docbase="s:\Data\FacilityIcons"
   inkscape:output_extension="org.inkscape.output.svg.inkscape">
  <metadata
     id="metadata2975">
    <rdf:RDF>
      <cc:Work
         rdf:about="">
        <dc:format>image/svg+xml</dc:format>
        <dc:type
           rdf:resource="http://purl.org/dc/dcmitype/StillImage" />
      </cc:Work>
    </rdf:RDF>
  </metadata>
  <sodipodi:namedview
     inkscape:window-height="1003"
     inkscape:window-width="1400"
     inkscape:pageshadow="2"
     inkscape:pageopacity="0.0"
     guidetolerance="10.0"
     gridtolerance="10.0"
     objecttolerance="10.0"
     borderopacity="1.0"
     bordercolor="#666666"
     pagecolor="#ffffff"
     id="base"
     inkscape:zoom="0.92167712"
     inkscape:cx="511.18277"
     inkscape:cy="400.71053"
     inkscape:window-x="0"
     inkscape:window-y="20"
     inkscape:current-layer="svg2"
     showgrid="false" />
  <defs
     id="defs4">
    <inkscape:perspective
       sodipodi:type="inkscape:persp3d"
       inkscape:vp_x="0 : 290 : 1"
       inkscape:vp_y="0 : 1000 : 0"
       inkscape:vp_z="580 : 290 : 1"
       inkscape:persp3d-origin="290 : 193.33333 : 1"
       id="perspective2441" />
    <inkscape:perspective
       id="perspective2466"
       inkscape:persp3d-origin="372.04724 : 350.78739 : 1"
       inkscape:vp_z="744.09448 : 526.18109 : 1"
       inkscape:vp_y="0 : 1000 : 0"
       inkscape:vp_x="0 : 526.18109 : 1"
       sodipodi:type="inkscape:persp3d" />
    <inkscape:perspective
       id="perspective3333"
       inkscape:persp3d-origin="372.04724 : 350.78739 : 1"
       inkscape:vp_z="744.09448 : 526.18109 : 1"
       inkscape:vp_y="0 : 1000 : 0"
       inkscape:vp_x="0 : 526.18109 : 1"
       sodipodi:type="inkscape:persp3d" />
    <inkscape:perspective
       id="perspective3401"
       inkscape:persp3d-origin="372.04724 : 350.78739 : 1"
       inkscape:vp_z="744.09448 : 526.18109 : 1"
       inkscape:vp_y="0 : 1000 : 0"
       inkscape:vp_x="0 : 526.18109 : 1"
       sodipodi:type="inkscape:persp3d" />
    <inkscape:perspective
       id="perspective3464"
       inkscape:persp3d-origin="372.04724 : 350.78739 : 1"
       inkscape:vp_z="744.09448 : 526.18109 : 1"
       inkscape:vp_y="0 : 1000 : 0"
       inkscape:vp_x="0 : 526.18109 : 1"
       sodipodi:type="inkscape:persp3d" />
    <inkscape:perspective
       id="perspective3581"
       inkscape:persp3d-origin="225 : 150 : 1"
       inkscape:vp_z="450 : 225 : 1"
       inkscape:vp_y="0 : 1000 : 0"
       inkscape:vp_x="0 : 225 : 1"
       sodipodi:type="inkscape:persp3d" />
    <inkscape:perspective
       id="perspective4312"
       inkscape:persp3d-origin="225 : 150 : 1"
       inkscape:vp_z="450 : 225 : 1"
       inkscape:vp_y="0 : 1000 : 0"
       inkscape:vp_x="0 : 225 : 1"
       sodipodi:type="inkscape:persp3d" />
    <inkscape:perspective
       id="perspective8860"
       inkscape:persp3d-origin="372.04724 : 350.78739 : 1"
       inkscape:vp_z="744.09448 : 526.18109 : 1"
       inkscape:vp_y="0 : 1000 : 0"
       inkscape:vp_x="0 : 526.18109 : 1"
       sodipodi:type="inkscape:persp3d" />
    <inkscape:perspective
       id="perspective8887"
       inkscape:persp3d-origin="372.04724 : 350.78739 : 1"
       inkscape:vp_z="744.09448 : 526.18109 : 1"
       inkscape:vp_y="0 : 1000 : 0"
       inkscape:vp_x="0 : 526.18109 : 1"
       sodipodi:type="inkscape:persp3d" />
    <inkscape:perspective
       sodipodi:type="inkscape:persp3d"
       inkscape:vp_x="0 : 16 : 1"
       inkscape:vp_y="0 : 1000 : 0"
       inkscape:vp_z="32 : 16 : 1"
       inkscape:persp3d-origin="16 : 10.666667 : 1"
       id="perspective4904" />
    <inkscape:perspective
       sodipodi:type="inkscape:persp3d"
       inkscape:vp_x="0 : 6 : 1"
       inkscape:vp_y="0 : 1000 : 0"
       inkscape:vp_z="12 : 6 : 1"
       inkscape:persp3d-origin="6 : 4 : 1"
       id="perspective4668" />
    <inkscape:perspective
       sodipodi:type="inkscape:persp3d"
       inkscape:vp_x="0 : 526.18109 : 1"
       inkscape:vp_y="0 : 1000 : 0"
       inkscape:vp_z="744.09448 : 526.18109 : 1"
       inkscape:persp3d-origin="372.04724 : 350.78739 : 1"
       id="perspective4471" />
    <symbol
       id="symbol-university"
       viewBox="244.5 110 489 219.9">
      <path
         d="M79,43l57,119c0,0,21-96,104-96s124,106,124,106l43-133l82-17L0,17L79,43z"
         id="path4460" />
      <path
         fill="none"
         stroke="#000000"
         stroke-width="20"
         d="M94,176l-21,39"
         id="path4462" />
      <path
         d="M300,19c0,10.5-22.6,19-50.5,19S199,29.5,199,19s22.6-19,50.5-19S300,8.5,300,19z"
         id="path4464" />
      <path
         ill="none"
         stroke="#000000"
         stroke-width="20"
         d="M112,216l-16-38L64,88c0,0-9-8-4-35s16-24,16-24"
         id="path4466" />
    </symbol>
    <inkscape:perspective
       sodipodi:type="inkscape:persp3d"
       inkscape:vp_x="0 : 30 : 1"
       inkscape:vp_y="0 : 1000 : 0"
       inkscape:vp_z="60 : 30 : 1"
       inkscape:persp3d-origin="30 : 20 : 1"
       id="perspective3452" />
    <inkscape:perspective
       id="perspective9479"
       inkscape:persp3d-origin="290 : 193.33333 : 1"
       inkscape:vp_z="580 : 290 : 1"
       inkscape:vp_y="0 : 1000 : 0"
       inkscape:vp_x="0 : 290 : 1"
       sodipodi:type="inkscape:persp3d" />
    <inkscape:perspective
       id="perspective9690"
       inkscape:persp3d-origin="372.04724 : 350.78739 : 1"
       inkscape:vp_z="744.09448 : 526.18109 : 1"
       inkscape:vp_y="0 : 1000 : 0"
       inkscape:vp_x="0 : 526.18109 : 1"
       sodipodi:type="inkscape:persp3d" />
    <inkscape:perspective
       sodipodi:type="inkscape:persp3d"
       inkscape:vp_x="0 : 290 : 1"
       inkscape:vp_y="0 : 1000 : 0"
       inkscape:vp_z="580 : 290 : 1"
       inkscape:persp3d-origin="290 : 193.33333 : 1"
       id="perspective9819" />
    <inkscape:perspective
       id="perspective9817"
       inkscape:persp3d-origin="30 : 20 : 1"
       inkscape:vp_z="60 : 30 : 1"
       inkscape:vp_y="0 : 1000 : 0"
       inkscape:vp_x="0 : 30 : 1"
       sodipodi:type="inkscape:persp3d" />
    <symbol
       viewBox="244.5 110 489 219.9"
       id="symbol9807">
      <path
         id="path9809"
         d="M79,43l57,119c0,0,21-96,104-96s124,106,124,106l43-133l82-17L0,17L79,43z" />
      <path
         id="path9811"
         d="M94,176l-21,39"
         stroke-width="20"
         stroke="#000000"
         fill="none" />
      <path
         id="path9813"
         d="M300,19c0,10.5-22.6,19-50.5,19S199,29.5,199,19s22.6-19,50.5-19S300,8.5,300,19z" />
      <path
         id="path9815"
         d="M112,216l-16-38L64,88c0,0-9-8-4-35s16-24,16-24"
         stroke-width="20"
         stroke="#000000"
         ill="none" />
    </symbol>
    <inkscape:perspective
       id="perspective9805"
       inkscape:persp3d-origin="372.04724 : 350.78739 : 1"
       inkscape:vp_z="744.09448 : 526.18109 : 1"
       inkscape:vp_y="0 : 1000 : 0"
       inkscape:vp_x="0 : 526.18109 : 1"
       sodipodi:type="inkscape:persp3d" />
    <inkscape:perspective
       id="perspective9803"
       inkscape:persp3d-origin="6 : 4 : 1"
       inkscape:vp_z="12 : 6 : 1"
       inkscape:vp_y="0 : 1000 : 0"
       inkscape:vp_x="0 : 6 : 1"
       sodipodi:type="inkscape:persp3d" />
    <inkscape:perspective
       id="perspective9801"
       inkscape:persp3d-origin="16 : 10.666667 : 1"
       inkscape:vp_z="32 : 16 : 1"
       inkscape:vp_y="0 : 1000 : 0"
       inkscape:vp_x="0 : 16 : 1"
       sodipodi:type="inkscape:persp3d" />
    <inkscape:perspective
       sodipodi:type="inkscape:persp3d"
       inkscape:vp_x="0 : 526.18109 : 1"
       inkscape:vp_y="0 : 1000 : 0"
       inkscape:vp_z="744.09448 : 526.18109 : 1"
       inkscape:persp3d-origin="372.04724 : 350.78739 : 1"
       id="perspective9799" />
    <inkscape:perspective
       sodipodi:type="inkscape:persp3d"
       inkscape:vp_x="0 : 526.18109 : 1"
       inkscape:vp_y="0 : 1000 : 0"
       inkscape:vp_z="744.09448 : 526.18109 : 1"
       inkscape:persp3d-origin="372.04724 : 350.78739 : 1"
       id="perspective9797" />
    <inkscape:perspective
       sodipodi:type="inkscape:persp3d"
       inkscape:vp_x="0 : 225 : 1"
       inkscape:vp_y="0 : 1000 : 0"
       inkscape:vp_z="450 : 225 : 1"
       inkscape:persp3d-origin="225 : 150 : 1"
       id="perspective9795" />
    <inkscape:perspective
       sodipodi:type="inkscape:persp3d"
       inkscape:vp_x="0 : 225 : 1"
       inkscape:vp_y="0 : 1000 : 0"
       inkscape:vp_z="450 : 225 : 1"
       inkscape:persp3d-origin="225 : 150 : 1"
       id="perspective9793" />
    <inkscape:perspective
       sodipodi:type="inkscape:persp3d"
       inkscape:vp_x="0 : 526.18109 : 1"
       inkscape:vp_y="0 : 1000 : 0"
       inkscape:vp_z="744.09448 : 526.18109 : 1"
       inkscape:persp3d-origin="372.04724 : 350.78739 : 1"
       id="perspective9791" />
    <inkscape:perspective
       sodipodi:type="inkscape:persp3d"
       inkscape:vp_x="0 : 526.18109 : 1"
       inkscape:vp_y="0 : 1000 : 0"
       inkscape:vp_z="744.09448 : 526.18109 : 1"
       inkscape:persp3d-origin="372.04724 : 350.78739 : 1"
       id="perspective9789" />
    <inkscape:perspective
       sodipodi:type="inkscape:persp3d"
       inkscape:vp_x="0 : 526.18109 : 1"
       inkscape:vp_y="0 : 1000 : 0"
       inkscape:vp_z="744.09448 : 526.18109 : 1"
       inkscape:persp3d-origin="372.04724 : 350.78739 : 1"
       id="perspective9787" />
    <inkscape:perspective
       sodipodi:type="inkscape:persp3d"
       inkscape:vp_x="0 : 526.18109 : 1"
       inkscape:vp_y="0 : 1000 : 0"
       inkscape:vp_z="744.09448 : 526.18109 : 1"
       inkscape:persp3d-origin="372.04724 : 350.78739 : 1"
       id="perspective9785" />
    <inkscape:perspective
       id="perspective9783"
       inkscape:persp3d-origin="290 : 193.33333 : 1"
       inkscape:vp_z="580 : 290 : 1"
       inkscape:vp_y="0 : 1000 : 0"
       inkscape:vp_x="0 : 290 : 1"
       sodipodi:type="inkscape:persp3d" />
    <inkscape:perspective
       id="perspective10056"
       inkscape:persp3d-origin="372.04724 : 350.78739 : 1"
       inkscape:vp_z="744.09448 : 526.18109 : 1"
       inkscape:vp_y="0 : 1000 : 0"
       inkscape:vp_x="0 : 526.18109 : 1"
       sodipodi:type="inkscape:persp3d" />
  </defs>
  <g
     id="g1327">
    <path
       d="M 66.275,1.768 C 24.94,1.768 1.704,23.139 1.704,66.804 L 1.704,516.927 C 1.704,557.771 22.599,579.156 63.896,579.156 L 515.92,579.156 C 557.227,579.156 578.149,558.841 578.149,516.927 L 578.149,66.804 C 578.149,24.203 557.227,1.768 514.628,1.768 C 514.624,1.768 66.133,1.625 66.275,1.768 z "
       style="fill:#111;stroke:#eee;stroke-width:3.40799999"
       id="path1329" />
  </g>
  <g
     id="layer3"
     inkscape:label="Layout"
     style="stroke:#757575;stroke-opacity:1;display:none"
     transform="matrix(48.14969,0,0,48.14969,-1210.2219,-51.870914)">
    <rect
       style="fill:none;stroke:#757575;stroke-width:0.1;stroke-miterlimit:4;stroke-dasharray:none;stroke-opacity:1;display:inline"
       id="rect4134"
       width="10"
       height="10"
       x="1"
       y="1" />
    <rect
       style="fill:none;stroke:#757575;stroke-width:0.1;stroke-miterlimit:4;stroke-dasharray:none;stroke-opacity:1;display:inline"
       id="rect4136"
       width="8"
       height="8"
       x="2"
       y="2" />
  </g>
  <g
     id="g9828"
     inkscape:label="Layout"
     style="stroke:#757575;stroke-opacity:1;display:none"
     transform="matrix(48.14969,0,0,48.14969,-1870.5198,102.97115)">
    <rect
       style="fill:none;stroke:#757575;stroke-width:0.1;stroke-miterlimit:4;stroke-dasharray:none;stroke-opacity:1;display:inline"
       id="rect9830"
       width="10"
       height="10"
       x="1"
       y="1" />
    <rect
       style="fill:none;stroke:#757575;stroke-width:0.1;stroke-miterlimit:4;stroke-dasharray:none;stroke-opacity:1;display:inline"
       id="rect9832"
       width="8"
       height="8"
       x="2"
       y="2" />
  </g>
  <g
     id="g10590"
     transform="matrix(5.4224895,0,0,6.3256342,-105.18328,-1537.3072)">
    <g
       transform="translate(505.60005,-159.49186)"
       id="g10577">
      <path
         style="fill:#ffffff;fill-opacity:1;fill-rule:evenodd;stroke:#ffffff;stroke-width:1px;stroke-linecap:butt;stroke-linejoin:round;stroke-opacity:1"
         d="M -472.50821,479.50385 C -451.72418,457.58451 -429.40806,435.61142 -389.37171,414.40513 C -408.70895,418.41938 -427.05197,426.14161 -442.66092,439.23801 C -456.65646,450.98071 -468.44944,462.50814 -478.47559,473.80771 C -478.47559,473.80771 -480.91679,476.92703 -478.47559,479.50385 C -476.03438,482.08068 -472.37258,479.63947 -472.50821,479.50385 z"
         id="path10062"
         sodipodi:nodetypes="ccscsc" />
      <path
         style="fill:#ffffff;fill-opacity:1;fill-rule:evenodd;stroke:#ffffff;stroke-width:1px;stroke-linecap:butt;stroke-linejoin:miter;stroke-opacity:1"
         d="M -473.59318,471.09527 C -473.59318,471.09527 -479.56057,468.51844 -479.1537,462.95793 C -478.74684,457.39741 -474.66057,452.79342 -469.79576,452.37939 C -463.4215,451.8369 -459.35284,455.90557 -459.35284,455.90557 L -464.23524,461.6017 C -464.23524,461.6017 -469.79576,456.58368 -472.64383,459.83861 C -475.4919,463.09355 -471.96571,469.73904 -471.96571,469.73904 L -473.59318,471.09527 z"
         id="path10064"
         sodipodi:nodetypes="cssccscc" />
      <path
         sodipodi:type="arc"
         style="opacity:1;fill:#ffffff;fill-opacity:1;stroke:#ffffff;stroke-width:1;stroke-linecap:round;stroke-linejoin:round;stroke-miterlimit:4;stroke-dasharray:none;stroke-dashoffset:0;stroke-opacity:1"
         id="path10066"
         sodipodi:cx="-457.31851"
         sodipodi:cy="463.36481"
         sodipodi:rx="3.9330475"
         sodipodi:ry="3.9330475"
         d="M -453.38546,463.36481 A 3.9330475,3.9330475 0 1 1 -461.25156,463.36481 A 3.9330475,3.9330475 0 1 1 -453.38546,463.36481 z"
         transform="matrix(0.8470326,0,0,0.8470326,-69.683569,70.8797)" />
    </g>
    <g
       transform="matrix(-1,0,0,1,-359.33223,-159.49186)"
       id="g10582">
      <path
         sodipodi:nodetypes="ccscsc"
         id="path10584"
         d="M -472.50821,479.50385 C -451.72418,457.58451 -429.40806,435.61142 -389.37171,414.40513 C -408.70895,418.41938 -427.05197,426.14161 -442.66092,439.23801 C -456.65646,450.98071 -468.44944,462.50814 -478.47559,473.80771 C -478.47559,473.80771 -480.91679,476.92703 -478.47559,479.50385 C -476.03438,482.08068 -472.37258,479.63947 -472.50821,479.50385 z"
         style="fill:#ffffff;fill-opacity:1;fill-rule:evenodd;stroke:#ffffff;stroke-width:0.99990976;stroke-linecap:butt;stroke-linejoin:round;stroke-miterlimit:4;stroke-dasharray:none;stroke-opacity:1" />
      <path
         sodipodi:nodetypes="cssccscc"
         id="path10586"
         d="M -473.59318,471.09527 C -473.59318,471.09527 -479.56057,468.51844 -479.1537,462.95793 C -478.74684,457.39741 -474.66057,452.79342 -469.79576,452.37939 C -463.4215,451.8369 -459.35284,455.90557 -459.35284,455.90557 L -464.23524,461.6017 C -464.23524,461.6017 -469.79576,456.58368 -472.64383,459.83861 C -475.4919,463.09355 -471.96571,469.73904 -471.96571,469.73904 L -473.59318,471.09527 z"
         style="fill:#ffffff;fill-opacity:1;fill-rule:evenodd;stroke:#ffffff;stroke-width:1px;stroke-linecap:butt;stroke-linejoin:miter;stroke-opacity:1" />
      <path
         transform="matrix(0.8470326,0,0,0.8470326,-69.683569,70.8797)"
         d="M -453.38546,463.36481 A 3.9330475,3.9330475 0 1 1 -461.25156,463.36481 A 3.9330475,3.9330475 0 1 1 -453.38546,463.36481 z"
         sodipodi:ry="3.9330475"
         sodipodi:rx="3.9330475"
         sodipodi:cy="463.36481"
         sodipodi:cx="-457.31851"
         id="path10588"
         style="opacity:1;fill:#ffffff;fill-opacity:1;stroke:#ffffff;stroke-width:1;stroke-linecap:round;stroke-linejoin:round;stroke-miterlimit:4;stroke-dasharray:none;stroke-dashoffset:0;stroke-opacity:1"
         sodipodi:type="arc" />
    </g>
  </g>
</svg>

<svg xmlns="http://www.w3.org/2000/svg" viewBox="0 0 580 580" xmlns:xlink="http://www.w3.org/1999/xlink"><path d="m66.28 1.768c-41.34 0-64.57 21.371-64.57 65.04v450.12c0 40.844 20.895 62.23 62.19 62.23h452.02c41.31 0 62.23-20.315 62.23-62.23v-450.12c0-42.601-20.922-65.04-63.52-65.04-.004 0-448.5-.143-448.35 0z" fill="#111" stroke="#eee" stroke-width="3.408"/><g transform="matrix(5.42249 0 0 6.32563-105.18-1537.31)"><g transform="translate(505.6-159.49)"><path d="m-472.51 479.5c20.784-21.919 43.1-43.892 83.14-65.1-19.337 4.01-37.68 11.736-53.29 24.833-13.996 11.743-25.789 23.27-35.815 34.57 0 0-2.441 3.119 0 5.696 2.441 2.577 6.103.136 5.967 0z" fill="#fff" fill-rule="evenodd" stroke="#fff" stroke-linejoin="round" id="0"/><path d="m-473.59 471.1c0 0-5.967-2.577-5.561-8.137.407-5.561 4.493-10.165 9.358-10.579 6.374-.542 10.443 3.526 10.443 3.526l-4.882 5.696c0 0-5.561-5.02-8.409-1.763-2.848 3.255.678 9.9.678 9.9l-1.627 1.356z" fill="#fff" fill-rule="evenodd" stroke="#fff" id="1"/><path d="M-453.38546 463.36481A3.933047 3.933047 0 1 1 -461.25156 463.36481 3.933047 3.933047 0 1 1 -453.38546 463.36481z" transform="matrix(.84703 0 0 .84703-69.68 70.88)" fill="#fff" stroke="#fff" stroke-linejoin="round" stroke-linecap="round" id="2"/></g><g transform="matrix(-1 0 0 1-359.33-159.49)"><use xlink:href="#0"/><use xlink:href="#1"/><use xlink:href="#2"/></g></g></svg>
